X:1
T:Title
%%score { ( 1 3 ) | ( 2 4 ) }
L:1/8
M:6/4
K:Bb
V:1 treble nm="Grand Piano"
V:3 treble 
V:2 bass 
V:4 bass 
V:1
 z6[Q:1/4=100] GG | ^F4 G2 _A4 GB | [^Fd]4 [Fc]2 [GB]4 GG | c4 F2 F4 G2 | F6- F4 GG | %5
 ^F4 G2 _A4 GG | [GB]4 _d2 c4 [Bc][Bc] | z6 z4 [Ae]2 |[M:5/4] d2- d2- d6 |[M:1/4] BB | %10
[M:6/4] [Ge]4 G2 G2 _A2 B2 | c4 c2 c4 [Bc][Bc] | [Ac]2 A2 F2 d4 c2 | [DB]6- [DB]4 [DB][F_A] | %14
 G4 G2 _A4 =AA |[M:7/4] B4 [Ge]2 e6 dc |[M:6/4] B4 B2 [_Ac]2 [Ad]2 [Ae]2 | [_Af]6 [Ge]2 [Ge]4 |] %18
V:2
 z6 [E,B,E][E,B,E] | [E,A,E]4 [E,B,E]2 [E,CE]4 [E,B,E][E,G,E] | %2
 [E,A,]4 [E,A,]2 [E,B,]4 [E,B,E][E,B,E] | [_A,E]4 [A,CE]2 [=A,CE]4 [F,A,E]2 | %4
 [B,D]6- [B,D]4 [E,B,E][E,B,E] | [E,A,E]4 [E,B,E]2 [F,CE]4 [E,B,E][E,B,E] | %6
 [E,_D]4 [G,B,E]2 [_A,E]4 [G,=E][G,E] | [F,E]4 [F,E]2 [F,D]4 .[F,C]2 | %8
[M:5/4][K:treble] [B,F_A]2- [B,FA]2- [B,FA]6 |[M:1/4] [B,D_A][B,DA] | %10
[M:6/4][K:bass] [E,B,]4 [E,B,E]2 [E,B,E]2 [F,B,D]2 [G,B,E]2 | %11
 [_A,E]4 [A,E_A]2 [A,EA]4 [G,=E][G,E] | E2 [CF]2[K:bass] [F,A,]2 [F,B,F]4 [F,A,E]2 | %13
 [B,,F,]6- [B,,F,]4 [B,,F,][D,B,] | [E,B,E]4 [E,B,E]2 [F,B,D]4 [^F,CE][F,CE] | %15
[M:7/4] [G,_DE]4 [E,D]2[K:treble] [_A,C_A]6 [=A,EF][A,EF] | %16
[M:6/4] [B,EG]4 [G,E]2[K:bass] [F,E]2 [F,D]2 [F,C]2 | [B,,D]6 [E,B,]2 [E,B,]4 |] %18
V:3
 x8 | x12 | x12 | x12 | x12 | x12 | x12 | [Af]4 [Ac]2 [Ad]4 z F |[M:5/4] x10 |[M:1/4] x2 | %10
[M:6/4] x12 | x12 | x12 | x12 | x12 |[M:7/4] x14 |[M:6/4] x12 | x12 |] %18
V:4
 x8 | x12 | x12 | x12 | x12 | x12 | x12 | x12 |[M:5/4][K:treble] x10 |[M:1/4] x2 | %10
[M:6/4][K:bass] x12 | x12 | .F,6[K:bass] z6 | x12 | x12 |[M:7/4] x6[K:treble] x8 | %16
[M:6/4] x6[K:bass] x6 | x12 |] %18

